z_dist/img/icons/crypto/stellar-XLM.svg

<svg width="64" height="64" viewBox="0 0 64 64" fill="none" xmlns="http://www.w3.org/2000/svg">
<rect y="0.000244141" width="64" height="64" rx="4" fill="black"/>
<path d="M48.3253 17.7928L42.8961 20.5588L16.6793 33.9124C16.5906 33.2362 16.546 32.5551 16.5457 31.8731C16.553 26.3368 19.4908 21.2181 24.2673 18.419C29.0439 15.6199 34.9454 15.5587 39.779 18.2582L42.8865 16.6749L43.3501 16.4383C37.5456 12.2254 29.8687 11.6241 23.4791 14.8821C17.0896 18.1401 13.0673 24.7066 13.0681 31.8788C13.0681 32.3647 13.0865 32.8486 13.1234 33.3306C13.229 34.7263 12.4858 36.0488 11.2386 36.6842L9.59998 37.5198V41.4171L14.4244 38.9581L15.9868 38.1607L17.5263 37.3767L45.1643 23.2944L48.2699 21.713L54.6892 18.4414V14.5459L48.3253 17.7928Z" fill="white"/>
<path d="M54.6892 22.3406L19.0963 40.4632L15.9906 42.0485L9.59998 45.3048V49.1984L15.9467 45.9649L21.3759 43.1988L47.6194 29.8262C47.7081 30.5068 47.7527 31.1924 47.753 31.8788C47.7495 37.4218 44.8084 42.5476 40.0247 45.3477C35.2411 48.1478 29.3316 48.2027 24.4968 45.4918L24.306 45.5929L20.9371 47.3098C26.7402 51.5229 34.4158 52.1255 40.8054 48.8698C47.1949 45.614 51.2187 39.05 51.2211 31.8788C51.2211 31.3886 51.202 30.8983 51.1657 30.4137C51.0603 29.0186 51.8026 27.6965 53.0486 27.0601L54.6892 26.2245V22.3406Z" fill="white"/>
</svg>

<svg width="64" height="64" fill="none" xmlns="http://www.w3.org/2000/svg"><rect width="64" height="64" rx="4" fill="#000"/><path d="M48.325 17.793l-5.429 2.766L16.68 33.912a15.732 15.732 0 01-.133-2.039A15.618 15.618 0 0139.78 18.258l3.107-1.583.464-.237a19.077 19.077 0 00-30.227 16.893 3.47 3.47 0 01-1.884 3.353l-1.64.836v3.897l4.824-2.459 1.563-.797 1.54-.784 27.637-14.083 3.106-1.581 6.42-3.272v-3.895l-6.365 3.247zm6.365 4.547L19.095 40.464l-3.105 1.585-6.39 3.256v3.893l6.347-3.233 5.429-2.766 26.243-13.373a15.618 15.618 0 01-23.123 15.666l-.19.1-3.369 1.718a19.077 19.077 0 0030.229-16.896 3.472 3.472 0 011.883-3.354l1.64-.835V22.34z" fill="#fff"/></svg>
